X: 44
T:Sweet Molly (#240)
M:4/4
L:1/8
S:O'Farrell's Pocket Companion 1804-10
R:Reel
K:G
EEBE dEBe|dBAF DEFD|EEGE dEBe|dBAF BE E2:||
Beef gfed|(3Bcd AF DEFD|Beef gfed|BdFA BE E2|
Beef gfed|(3Bcd Af defa|"tr"afge fde^c|dBAF BE E2||

